teeny/solid/jpg.svg

<svg width="15" height="15" viewBox="0 0 15 15" fill="none" xmlns="http://www.w3.org/2000/svg">
<path d="M7 8H7.5C7.77614 8 8 7.77614 8 7.5C8 7.22386 7.77614 7 7.5 7H7V8Z" fill="black"/>
<path fill-rule="evenodd" clip-rule="evenodd" d="M1 1.5C1 0.671573 1.67157 0 2.5 0H10.7071L14 3.29289V13.5C14 14.3284 13.3284 15 12.5 15H2.5C1.67157 15 1 14.3284 1 13.5V1.5ZM4 7H2V6H5V11H2V9H3V10H4V7ZM6 6H7.5C8.32843 6 9 6.67157 9 7.5C9 8.32843 8.32843 9 7.5 9H7V11H6V6ZM10 6H13V7H11V10H12V8.5H13V11H10V6Z" fill="black"/>
</svg>

<svg viewBox="0 0 15 15" xmlns="http://www.w3.org/2000/svg"><g><path d="M7 8h.5c.27 0 .5-.23.5-.5 0-.28-.23-.5-.5-.5H7v1Z"/><path fill-rule="evenodd" d="M1 1.5C1 .67 1.67 0 2.5 0h8.2l3.29 3.29v10.2c0 .82-.68 1.5-1.5 1.5h-10c-.83 0-1.5-.68-1.5-1.5v-12ZM4 7H2V6h3v5H2V9h1v1h1V7Zm2-1h1.5C8.32 6 9 6.67 9 7.5 9 8.32 8.32 9 7.5 9H7v2H6V6Zm4 0h3v1h-2v3h1V8.5h1V11h-3V6Z"/></g></svg>
